X:6152
T:Soldiers Joy
O:england
M:4/4
L:1/8
C:Trad
R:Rant
K:G
|: FG | AFDF AFDF | A2 d2d2 cB | AFDF AFDF | G2 E2 E2 FG| AFDF AFDF | A2
d2 d2 3efg | fafd egec | d2 d2 d2 :|
|: de | f2 fd fage | e2 ec egfe | f2 fd fagf | edcB A2 de | fdfd fagf |
ecec egfe | fafd egec | d2 d2 d2 :|


